build/svg/cmd/sc_togglesheetgrid.svg

<svg xmlns="http://www.w3.org/2000/svg" viewBox="0 0 16 16"><path fill="#fff" fill-rule="evenodd" d="M3 3h10v10H3z"/><path d="M13 6v6c0 1-1 1-2 1H4.992C4 13 3 13 3 12H2c0 1 1 2 2.983 2H11c2 0 3 0 3-2V6z" opacity=".6"/><path d="M2 4v8c0 2 1 2 3 2v-1c-1 0-2 0-2-1h4V9h3V6h4V4c0-2-1-2-3-2H5C3 2 2 2 2 4zm3-1h1v2H3V4c0-1 1-1 2-1zm2 0h2v2H7zm3 0h1c1 0 2 0 2 1v1h-3zM3 6h3v2H3zm4 0h2v2H7V7zM3 9h3v2H3v-1z" fill="#6d6d6d"/></svg>

<?xml version="1.0" encoding="UTF-8" standalone="no"?>
<svg
   xmlns:dc="http://purl.org/dc/elements/1.1/"
   xmlns:cc="http://creativecommons.org/ns#"
   xmlns:rdf="http://www.w3.org/1999/02/22-rdf-syntax-ns#"
   xmlns:svg="http://www.w3.org/2000/svg"
   xmlns="http://www.w3.org/2000/svg"
   xmlns:sodipodi="http://sodipodi.sourceforge.net/DTD/sodipodi-0.dtd"
   xmlns:inkscape="http://www.inkscape.org/namespaces/inkscape"
   viewBox="0 0 16 16"
   version="1.1"
   id="svg6"
   sodipodi:docname="sc_togglesheetgrid.svg"
   inkscape:version="0.92.5 (2060ec1f9f, 2020-04-08)"
   inkscape:export-filename="/home/jupiter007/Libreoffice yaru theme fullcolor/build/cmd/sc_togglesheetgrid.png"
   inkscape:export-xdpi="96"
   inkscape:export-ydpi="96">
  <metadata
     id="metadata12">
    <rdf:RDF>
      <cc:Work
         rdf:about="">
        <dc:format>image/svg+xml</dc:format>
        <dc:type
           rdf:resource="http://purl.org/dc/dcmitype/StillImage" />
      </cc:Work>
    </rdf:RDF>
  </metadata>
  <defs
     id="defs10" />
  <sodipodi:namedview
     pagecolor="#ffffff"
     bordercolor="#666666"
     borderopacity="1"
     objecttolerance="10"
     gridtolerance="10"
     guidetolerance="10"
     inkscape:pageopacity="0"
     inkscape:pageshadow="2"
     inkscape:window-width="1920"
     inkscape:window-height="1011"
     id="namedview8"
     showgrid="true"
     inkscape:zoom="29.5"
     inkscape:cx="7.6774775"
     inkscape:cy="6.9930558"
     inkscape:window-x="1920"
     inkscape:window-y="32"
     inkscape:window-maximized="1"
     inkscape:current-layer="svg6">
    <inkscape:grid
       type="xygrid"
       id="grid822" />
  </sodipodi:namedview>
  <rect
     style="opacity:1;fill:#ffffff;fill-opacity:1;fill-rule:evenodd;stroke:none;stroke-width:2;stroke-linecap:butt;stroke-linejoin:round;stroke-miterlimit:4;stroke-dasharray:none;stroke-opacity:1"
     id="rect814"
     width="10"
     height="10"
     x="3"
     y="3" />
  <path
     d="m 13,6 v 6 c 0,1 -1,1 -2,1 H 4.9915254 C 4,13 3,13 3,12 H 2 c 0,1 1,2 2.9830509,2 H 11 c 2,0 3,0 3,-2 V 6 Z"
     id="path2"
     inkscape:connector-curvature="0"
     style="fill:#000000;opacity:0.6"
     sodipodi:nodetypes="ccccccccccc" />
  <path
     d="m 2,4 v 8 c 0,2 1,2 3,2 V 13 C 4,13 3,13 3,12 H 6 7 V 9 h 3 V 8 7 6 h 4 V 5 4 C 14,2 13,2 11,2 H 5 C 3,2 2,2 2,4 Z M 5,3 H 6 V 5 H 3 V 4 C 3,3 4,3 5,3 Z M 7,3 H 9 V 5 H 7 Z m 3,0 h 1 c 1,0 2,0 2,1 V 5 H 10 Z M 3,6 H 6 V 7 8 H 3 Z M 7,6 H 9 V 7 8 H 7 V 7 Z M 3,9 h 3 v 2 H 3 v -1 z"
     id="path4"
     inkscape:connector-curvature="0"
     style="fill:#6d6d6d;fill-opacity:1"
     sodipodi:nodetypes="cccccccccccccccccccccccccccccccccccccccccccccccccccccc" />
</svg>
